packages/core/src/svgs/tokens/mono/CRWNY.svg

<svg width="24" height="24" viewBox="0 0 24 24" fill="none" xmlns="http://www.w3.org/2000/svg">
<path d="M4.75848 8.33545C5.02498 8.33545 5.25152 8.50202 5.34479 8.74191C5.34479 8.74191 7.9032 15.2512 8.54948 15.2512C9.00925 15.2512 11.2611 9.77463 11.2611 9.77463C11.3082 9.66099 11.3876 9.56383 11.4895 9.49512C11.5914 9.4264 11.7113 9.38925 11.8341 9.38816H12.1739C12.427 9.38816 12.6535 9.54144 12.7468 9.77463C12.7468 9.77463 14.9988 15.2512 15.4585 15.2512C16.1047 15.2512 18.6698 8.74191 18.6698 8.74191C18.7566 8.50202 18.9898 8.34212 19.2495 8.33545H21.3683C21.828 8.33545 22.1344 8.83519 21.9412 9.28151C21.9412 9.28151 21.0483 13.7054 16.4912 21.2674C16.378 21.4939 16.1581 21.6405 15.9117 21.6606H15.6185C15.3786 21.6606 15.3386 21.6606 15.0588 21.2875C14.9058 21.0713 14.7547 20.8536 14.6058 20.6346L14.2459 20.1015C13.0933 18.3692 12.1072 16.677 12.1072 16.677C12.1072 16.6505 12.0967 16.6251 12.078 16.6063C12.0592 16.5875 12.0339 16.5771 12.0073 16.5771C11.9809 16.5771 11.9554 16.5875 11.9367 16.6063C11.9179 16.6251 11.9073 16.6505 11.9073 16.677C11.9073 16.677 10.4084 19.2354 8.95593 21.2875C8.67606 21.6606 8.62942 21.6606 8.38957 21.6606H8.09642C7.84991 21.6405 7.63005 21.4873 7.52345 21.2674C2.97292 13.7054 2.07347 9.27483 2.07347 9.27483C1.88027 8.83519 2.18674 8.33545 2.64645 8.33545H4.75848Z" fill="white"/>
<path d="M12.6334 2.33936C12.7867 2.33936 12.9266 2.41264 13.0132 2.53923L13.7528 3.63855C13.8033 3.7145 13.8336 3.80218 13.8406 3.89317C13.8476 3.98416 13.8311 4.07543 13.7927 4.15823L12.1137 6.9565C12.1085 6.96998 12.0993 6.98161 12.0875 6.98991C12.0757 6.99821 12.0617 7.00281 12.0471 7.00314C12.0334 7.00339 12.0198 6.99978 12.008 6.99271C11.9964 6.98564 11.9867 6.97541 11.9805 6.96317L10.3149 4.1649C10.2754 4.08265 10.2579 3.99169 10.2638 3.90071C10.2695 3.80972 10.2986 3.72176 10.3482 3.64522L11.081 2.5459C11.1743 2.41264 11.3142 2.34602 11.4675 2.33936H12.6334ZM2.43973 3.05892L3.59901 3.91172C3.82553 4.07828 3.89883 4.39809 3.77889 4.66458L2.66625 6.81659C2.60629 6.93651 2.51302 7.00314 2.35311 7.00314C2.23319 6.9765 2.13991 6.82991 2.13324 6.69C2.13324 6.69 2.07328 5.97711 2.02665 5.11098C2.00665 4.79117 2 4.45805 2 4.1649V3.80512C2 3.51197 2.01332 3.31208 2.01332 3.31208C2.00665 3.19883 2.04664 3.09888 2.14657 3.04559C2.19139 3.01887 2.24305 3.0059 2.29516 3.00827C2.34727 3.01063 2.39753 3.02824 2.43973 3.05892ZM21.5413 3.05892C21.6279 2.99229 21.7412 2.99229 21.8345 3.04559C21.9278 3.09888 21.9876 3.20548 21.9809 3.31208L21.9876 3.8984V4.1649C21.9876 4.45805 21.9876 4.79784 21.9677 5.11763C21.9144 5.98378 21.8544 6.69667 21.8544 6.69667C21.8544 6.82991 21.7611 6.9765 21.6346 7.00314C21.508 7.02979 21.3813 6.93651 21.3215 6.81659L20.2087 4.66458C20.1507 4.53639 20.1376 4.39238 20.1715 4.2558C20.2053 4.11921 20.2841 3.998 20.3952 3.91172L21.5413 3.05892Z" fill="white"/>
</svg>

<svg xmlns="http://www.w3.org/2000/svg" width="24" height="24" fill="none" viewBox="0 0 24 24">
    <path fill="#fff" d="M4.758 8.335a.63.63 0 0 1 .587.407s2.558 6.51 3.204 6.51c.46 0 2.712-5.477 2.712-5.477a.63.63 0 0 1 .573-.387h.34c.253 0 .48.153.573.387 0 0 2.252 5.476 2.712 5.476.646 0 3.21-6.51 3.21-6.51a.63.63 0 0 1 .58-.406h2.12c.459 0 .765.5.572.947 0 0-.893 4.423-5.45 11.985a.71.71 0 0 1-.58.394h-.293c-.24 0-.28 0-.56-.373a42 42 0 0 1-.452-.653l-.36-.534c-1.153-1.732-2.139-3.424-2.139-3.424a.1.1 0 0 0-.1-.1.1.1 0 0 0-.1.1s-1.499 2.558-2.951 4.61c-.28.374-.327.374-.566.374h-.294a.7.7 0 0 1-.573-.394c-4.55-7.562-5.45-11.992-5.45-11.992-.193-.44.114-.94.573-.94zm7.875-5.995c.154 0 .294.073.38.2l.74 1.099a.53.53 0 0 1 .04.52l-1.68 2.798a.073.073 0 0 1-.133.006l-1.665-2.798a.53.53 0 0 1 .033-.52l.733-1.1a.48.48 0 0 1 .386-.206zM2.44 3.058l1.159.853c.227.166.3.486.18.753L2.666 6.817c-.06.12-.153.186-.313.186-.12-.027-.213-.173-.22-.313 0 0-.06-.713-.106-1.579-.02-.32-.027-.653-.027-.946v-.36c0-.293.013-.493.013-.493-.006-.113.034-.213.134-.266a.27.27 0 0 1 .293.013m19.101 0a.26.26 0 0 1 .293-.013c.094.053.154.16.147.266l.007.586v.267c0 .293 0 .633-.02.953-.054.866-.114 1.579-.114 1.579 0 .133-.093.28-.22.306-.126.027-.253-.066-.312-.186l-1.113-2.152a.626.626 0 0 1 .186-.753z"/>
</svg>
